dist/images/icons/heart.svg

<svg width="24" height="24" viewBox="0 0 24 24" fill="none" xmlns="http://www.w3.org/2000/svg">
<g clip-path="url(#clip0_5_255)">
<path fill-rule="evenodd" clip-rule="evenodd" d="M12.0028 4.12097L10.9273 3.01547C8.40276 0.420474 3.77376 1.31597 2.10276 4.57847C1.31826 6.11297 1.14126 8.32847 2.57376 11.156C3.95376 13.8785 6.82476 17.1395 12.0028 20.6915C17.1808 17.1395 20.0503 13.8785 21.4318 11.156C22.8643 8.32697 22.6888 6.11297 21.9028 4.57847C20.2318 1.31597 15.6028 0.418974 13.0783 3.01397L12.0028 4.12097ZM12.0028 22.499C-10.9967 7.30097 4.92126 -4.56103 11.7388 1.71347C11.8288 1.79597 11.9173 1.88147 12.0028 1.96997C12.0874 1.88155 12.1755 1.79649 12.2668 1.71497C19.0828 -4.56403 35.0023 7.29947 12.0028 22.499Z" fill="black"/>
</g>
<defs>
<clipPath id="clip0_5_255">
<rect width="24" height="24" fill="white"/>
</clipPath>
</defs>
</svg>

<svg width="24" height="24" fill="none" xmlns="http://www.w3.org/2000/svg"><g clip-path="url(#clip0_5_255)"><path fill-rule="evenodd" clip-rule="evenodd" d="M12.003 4.121l-1.076-1.106C8.403.42 3.774 1.316 2.103 4.578c-.785 1.535-.962 3.75.47 6.578 1.38 2.723 4.252 5.984 9.43 9.536 5.178-3.552 8.047-6.813 9.429-9.536 1.432-2.829 1.257-5.043.47-6.578-1.67-3.262-6.3-4.159-8.824-1.564l-1.075 1.107zm0 18.378c-23-15.198-7.082-27.06-.264-20.786.09.083.178.168.264.257.084-.088.172-.174.264-.255 6.816-6.279 22.735 5.584-.264 20.784z" fill="#000"/></g><defs><clipPath id="clip0_5_255"><path fill="#fff" d="M0 0h24v24H0z"/></clipPath></defs></svg>
